X: 30734
T: Ormond Sound
R: reel
M: 4/4
K: Adorian
|:EG|~A2 ed BedB|AG ~G2 AGEG|~A2ed Bdef|~g2fa gedg|
eA ~A2 BedB|AGEF ~G2 AG|EA ~A2 GABd|gedB A2:|
|:Bd|efge agfg|ea~a2 edBd|(3efg fa gfge|dg~g2 dcBd|
cBce ~d2 ^cd|efge ~a2 ga|bg ~g2 agab|gedB A2:|

